X:1
T:Étude op. 30 no 16
T:Étude op. 30 no 16
T:Joachim Andersen
C:Joachim Andersen
L:1/8
Q:1/4=88
M:2/4
K:Db
V:1 treble nm="Flûte" snm="Fl."
V:1
"^Allegretto"!p!"_con gusto"{/g} (Tf2{=ef)} .a/.g/.f/._e/ | .g/.f/.e/.d/ .f/.e/.d/.c/ | %2
{/c} B/.=A/.B/.d/ .f/.b/.a/.g/ |{/g} f/.=e/.f/.=a/ .c'/.=e'/.f' |{/a} Tg2{fg} b/.a/.=g/_g/ | %5
{/g} Tf2{=ef} a/.=g/._g/.f/ | .e/.d'/.c'/.=a/ .c'/.b/._a/.g/ | .f/.=e/{/g}f/.e/ .f/.e/.f | %8
{/g} (Tf2{=ef)} .a/.g/.f/._e/ | .g/.f/.e/.d/ .f/.e/.d/.c/ |{/c} B/.=A/.B/.d/ .f/.b/._a/.g/ | %11
{/g} f/.=e/.f/.=a/ .c'/.=e'/.f' |{/c} TB2{=AB} b/.c'/.d'/.B/ |{/d} Tc2{=Bc} c'/.d'/.e'/.c/ | %14
!<(!{/g} Tf2{=ef} e'/.=e'/.f'/.=a/!<)! |!f!{/c'} (Tb2{=ab)} B z ||!p! .B/.=a/.b/.=A/ (TB2{AB)} | %17
!<(! .c/.F/.=A/.c/ .f/.=a/.c'/.f'/!<)! |!p! .d/.c'/.d'/.c/ ((Td2{cd)} | %19
!<(! e/).A/.c/.e/ .a/.c'/.e'/.a'/!<)! |!mf! (g'/f'/).e'/.d'/ .c'/.b/.a/.b/ | %21
 .a/.=g/._g/.f/ .=d/.e/.f/.g/ | (f/d/).f/.a/ .=g/.f/.e/.d/ | .c/.=g/.a/.=G/!>(! A((T=A{^GA)}!>)! | %24
!p! .B/).=a/.b/.=A/ (TB2{AB)} |!<(! .c/.F/.=A/.c/ .f/.=a/.c'/.f'/!<)! | %26
!p! .d/.c'/.d'/.c/ ((Td2{cd)} |!<(! e/).A/.c/.e/ .a/.c'/.e'/.a'/!<)! | %28
!f! (__b'/g'/).f'/.=e'/ ._e'/.d'/.c'/.g'/ | (f'/_f'/).e'/.=d'/ ._d'/.c'/.b/.d'/ | %30
!>(! (c'/b/).=a/._a/ .=g/._g/.f/.=e/ | .f/.=A/.c/._e/ .g/.f/.e/.F/!>)! || %32
{/g} (Tf2{=ef)} .a/.g/.f/._e/ | .g/.f/.e/.d/ .f/.e/.d/.c/ |{/c} B/.=A/.B/.d/ .f/.b/.a/.g/ | %35
{/g} f/.=e/.f/.=a/ .c'/.=e'/.f' |{/a} Tg2{fg} b/.a/.=g/_g/ |{/g} Tf2{=ef} a/.=g/._g/.f/ | %38
 .e/.d'/.c'/.=a/ .c'/.b/._a/.g/ | .f/.=e/{/g}f/.e/ .f/.e/.f |{/g} (Tf2{=ef)} .a/.g/.f/._e/ | %41
 .g/.f/.e/.d/ .f/.e/.d/.c/ |{/c} B/.=A/.B/.d/ .f/.b/.a/.g/ | %43
!>(!{/g} f/.=e/.f/.=a/ .c'/.=e'/.f'!>)! |!mf!{/c} TB2{=AB} b/.c'/.d'/.B/ | %45
{/d} Tc2{=Bc} c'/.d'/.e'/.c/ |!<(!{/g} Tf2{=ef} f'/.^f'/.=g'/.=a'/!<)! | %47
!f! .b'/!>(!.g'/.f'/.d'/ .b/.g/.f/.d/!>)! |!mf!{/c} TB2{=AB}!<(! b/.c'/.d'/.B/ | %49
{/d} Tc2{=Bc} c'/!<)!.d'/.e'/.c/ |!f!{/g} Tf2{/g'} Tf'2 |!>(!{/_c'} Tb2{/f} Te2 | %52
{/a} Tg2{/d} T_c2 |{/B} T=A2!>)!{/g} Tf2 |!p!{/=c} (TB2{=AB)} ._A/.B/._c/.A/ | %55
 .G/.A/.B/.G/ .F/.G/.=G/.=A/ |{/=c} (TB2{=AB)} ._A/.B/._c/.A/ | .G/.A/.B/.G/ .F/.G/.=G/.=A/ | %58
{/c} (TB2{=AB)} .e/.d/.c/.B/ |{/e} (Td2{cd)} .g/.f/.e/.d/ |{/g} (Tf2{=ef)} .b/.a/.g/.f/ | %61
"_cresc." .e'/.d'/.c'/.b/ .g'/.f'/.e'/.d'/ |!f! .b'/.g'/.f'/.d'/!>(! .b/.e'/.d'/.b/ | %63
 .f/.c'/.b/.f/ .d/.g/.f/.d/!>)! |{/c} (TB4{=AB} |!p! b) z z2 |] %66

